src/16/actions/format-precision-more.svg

<svg xmlns="http://www.w3.org/2000/svg" viewBox="0 0 16 16">
  <defs id="defs3051">
    <style type="text/css" id="current-color-scheme">
      .ColorScheme-Text {
        color:#5d656b;
      }
      .ColorScheme-Highlight {
        color:#3daee9;
      }
      </style>
  </defs>
  <path 
        style="fill:currentColor;fill-opacity:1;stroke:none"
        d="M 5.5 2 C 4.119 2 3 3.119 3 4.5 L 3 7.5 C 3 8.881 4.119 10 5.5 10 C 6.881 10 8 8.881 8 7.5 L 8 4.5 C 8 3.119 6.881 2 5.5 2 z M 11.5 2 C 10.119 2 9 3.119 9 4.5 L 9 7.5 C 9 8.881 10.119 10 11.5 10 C 12.881 10 14 8.881 14 7.5 L 14 4.5 C 14 3.119 12.881 2 11.5 2 z M 5.5 3 C 6.328 3 7 3.672 7 4.5 L 7 7.5 C 7 8.328 6.328 9 5.5 9 C 4.672 9 4 8.328 4 7.5 L 4 4.5 C 4 3.672 4.672 3 5.5 3 z M 11.5 3 C 12.328 3 13 3.672 13 4.5 L 13 7.5 C 13 8.328 12.328 9 11.5 9 C 10.672 9 10 8.328 10 7.5 L 10 4.5 C 10 3.672 10.672 3 11.5 3 z M 2 9 L 2 10 L 3 10 L 3 9 L 2 9 z "
        class="ColorScheme-Text"
        />
  <path
     style="fill:currentColor;fill-opacity:1;stroke:none"
     d="m 11,9 0,2 -2,0 0,1 2,0 0,2 1,0 0,-2 2,0 0,-1 -2,0 0,-2 z"
     class="ColorScheme-Highlight"
      />
</svg>

<svg xmlns="http://www.w3.org/2000/svg" viewBox="0 0 16 16"><path d="M5.5 2A2.5 2.5 0 0 0 3 4.5v3a2.5 2.5 0 1 0 5 0v-3A2.5 2.5 0 0 0 5.5 2zm6 0A2.5 2.5 0 0 0 9 4.5v3a2.5 2.5 0 1 0 5 0v-3A2.5 2.5 0 0 0 11.5 2zm-6 1A1.5 1.5 0 0 1 7 4.5v3a1.5 1.5 0 0 1-3 0v-3A1.5 1.5 0 0 1 5.5 3zm6 0A1.5 1.5 0 0 1 13 4.5v3a1.5 1.5 0 0 1-3 0v-3A1.5 1.5 0 0 1 11.5 3zM2 9v1h1V9H2z" fill="currentColor" color="#5d656b"/><path d="M11 9v2H9v1h2v2h1v-2h2v-1h-2V9z" fill="currentColor" color="#3daee9"/></svg>
